X: 2188
T: THROUGH THE MUIR SHE RAN
Q: "Reel."
R: Reel.
%R: reel
B: James Kerr "Merry Melodies" v.2 p.21 #188
Z: 2016 John Chambers <jc:trillian.mit.edu>
M: C
L: 1/8
K: F
uc |\
fgag fddf | AFcA G/G/G (Gc) |\
fgag fddf | cAfc A/A/A A ::\
uB |\
cdcA FGAB |
cdcA G/G/G (GA) |\
[1 cdcA FGAB | cAfc A/A/A A :|\
[2 cdca gefd | cAfc A/A/A A |]
